icons/svgs/floppy-disk-outline.svg

<svg width="24" height="24" viewBox="0 0 24 24" fill="none" xmlns="http://www.w3.org/2000/svg">
<path d="M5.125 5.75V18.25C5.125 18.6016 5.39844 18.875 5.75 18.875H18.25C18.5625 18.875 18.875 18.6016 18.875 18.25V8.67969C18.875 8.52344 18.7969 8.36719 18.6797 8.25L20.0078 6.92188C20.4766 7.39062 20.7109 8.01562 20.7109 8.67969V18.25C20.7109 19.6562 19.6172 20.75 18.2109 20.75H5.75C4.34375 20.75 3.25 19.6562 3.25 18.25V5.75C3.25 4.38281 4.34375 3.25 5.75 3.25H15.3203C15.9844 3.25 16.6094 3.52344 17.0781 3.99219L20.0078 6.92188L18.6797 8.25L15.75 5.32031C15.75 5.32031 15.75 5.32031 15.75 5.28125V9.1875C15.75 9.73438 15.3203 10.125 14.8125 10.125H7.3125C6.76562 10.125 6.375 9.73438 6.375 9.1875V5.125H5.75C5.39844 5.125 5.125 5.4375 5.125 5.75ZM8.25 5.125V8.25H13.875V5.125H8.25ZM9.5 14.5C9.5 13.6406 9.96875 12.8203 10.75 12.3516C11.4922 11.9219 12.4688 11.9219 13.25 12.3516C13.9922 12.8203 14.5 13.6406 14.5 14.5C14.5 15.3984 13.9922 16.2188 13.25 16.6875C12.4688 17.1172 11.4922 17.1172 10.75 16.6875C9.96875 16.2188 9.5 15.3984 9.5 14.5Z" fill="black"/>
</svg>

<svg xmlns="http://www.w3.org/2000/svg" width="24" height="24" fill="currentColor" class="icon-floppy-disk-outline" viewBox="0 0 24 24">
  <mask id="a" width="18" height="18" x="3" y="3" maskUnits="userSpaceOnUse" style="mask-type:alpha">
    <path d="M5.125 5.75v12.5c0 .352.273.625.625.625h12.5a.64.64 0 0 0 .625-.625V8.68a.63.63 0 0 0-.195-.43l1.328-1.328c.469.469.703 1.094.703 1.758v9.57c0 1.406-1.094 2.5-2.5 2.5H5.75a2.47 2.47 0 0 1-2.5-2.5V5.75c0-1.367 1.094-2.5 2.5-2.5h9.57c.664 0 1.29.273 1.758.742l2.93 2.93L18.68 8.25l-2.93-2.93v-.039 3.907c0 .546-.43.937-.937.937h-7.5c-.547 0-.938-.39-.938-.937V5.125H5.75a.64.64 0 0 0-.625.625m3.125-.625V8.25h5.625V5.125zM9.5 14.5c0-.86.469-1.68 1.25-2.148.742-.43 1.719-.43 2.5 0 .742.468 1.25 1.289 1.25 2.148 0 .898-.508 1.719-1.25 2.188-.781.43-1.758.43-2.5 0A2.54 2.54 0 0 1 9.5 14.5"/>
  </mask>
  <g mask="url(#a)">
    <path d="M0 0h24v24H0z"/>
  </g>
</svg>
